PortableApps/LibreOfficePortable/App/libreoffice/help/media/icon-themes/cmd/sc_rejecttrackedchange.svg

<svg viewBox="0 0 16 16" xmlns="http://www.w3.org/2000/svg"><path d="m3 1v14h3.4414062l-.1425781-.140625c-.3943812-.388045-.3987548-1.022566-.0097656-1.416016l1.9414063-1.96289-1.9472657-1.9980471c-.3889839-.3997414-.3758011-1.040426.0292969-1.4238281l1.8808594-1.7832032c.182534-.1736362.4238752-.2719906.6757812-.2753906.2702129-.0030983.5301792.1032836.7207032.2949219l1.9160152 1.9277343 1.494141-1.53125v-2.9863281l-2.695312-2.7050781zm8.511719 13.673828-.308594.326172h.617187z" fill="#fff"/><path d="m3 0c-.554 0-1 .446-1 1v14c0 .554.446 1 1 1h2 1.0292969 1.4277343l-1.015625-1h-.2402343-1.2011719-2v-14h6v3.5c0 .277.223.5.5.5h3.5v1.6914062l.378906-.3886718c.171457-.1758221.394133-.2631426.621094-.2851563v-1.5175781-.8632812l-3.636719-3.6367188h-.863281zm7 1 3 3h-3zm-5.5 3c-.277 0-.5.223-.5.5s.223.5.5.5h3c.277 0 .5-.223.5-.5s-.223-.5-.5-.5zm0 6c-.277 0-.5.223-.5.5s.223.5.5.5h3.2617188l-.9746094-1zm6.703125 5-.945313 1h.742188 1.767578l-.947266-1z" fill="#808080"/><path d="m4.5 7c-.277 0-.5.223-.5.5s.223.5.5.5h1.875l1.0546875-1zm5.791016 0 .99414 1h.4375l.94336-.9667969c-.052364-.018518-.107153-.0332031-.166016-.0332031zm-5.791016 6c-.277 0-.5.223-.5.5s.223.5.5.5h1.5292969c.0303802-.202293.1049023-.400001.2597656-.556641l.4394531-.443359z" fill="#d65532"/><path d="m16 14.149904-2.605902-2.651537 2.50749-2.7777726-1.807553-1.7205859-2.580554 2.6470558-2.632865-2.6470558-1.880616 1.783872 2.632863 2.7031725-2.632863 2.660005 1.880616 1.852942 2.62981-2.77941 2.635919 2.77941z" fill="#e68497"/></svg>

<svg viewBox="0 0 16 16" xmlns="http://www.w3.org/2000/svg">
  <path
     style="fill:#ffffff"
     d="M 3 1 L 3 15 L 6.4414062 15 L 6.2988281 14.859375 C 5.9044469 14.47133 5.9000733 13.836809 6.2890625 13.443359 L 8.2304688 11.480469 L 6.2832031 9.4824219 C 5.8942192 9.0826805 5.907402 8.4419959 6.3125 8.0585938 L 8.1933594 6.2753906 C 8.3758934 6.1017544 8.6172346 6.0034 8.8691406 6 C 9.1393535 5.9969017 9.3993198 6.1032836 9.5898438 6.2949219 L 11.505859 8.2226562 L 13 6.6914062 L 13 3.7050781 L 10.304688 1 L 3 1 z M 11.511719 14.673828 L 11.203125 15 L 11.820312 15 L 11.511719 14.673828 z "
     />
  <path
     style="fill:#808080"
     d="M 3 0 C 2.446 0 2 0.446 2 1 L 2 15 C 2 15.554 2.446 16 3 16 L 5 16 L 6.0292969 16 L 7.4570312 16 L 6.4414062 15 L 6.2011719 15 L 5 15 L 3 15 L 3 1 L 9 1 L 9 4.5 C 9 4.777 9.223 5 9.5 5 L 13 5 L 13 6.6914062 L 13.378906 6.3027344 C 13.550363 6.1269123 13.773039 6.0395918 14 6.0175781 L 14 4.5 L 14 3.6367188 L 10.363281 0 L 9.5 0 L 3 0 z M 10 1 L 13 4 L 10 4 L 10 1 z M 4.5 4 C 4.223 4 4 4.223 4 4.5 C 4 4.777 4.223 5 4.5 5 L 7.5 5 C 7.777 5 8 4.777 8 4.5 C 8 4.223 7.777 4 7.5 4 L 4.5 4 z M 4.5 10 C 4.223 10 4 10.223 4 10.5 C 4 10.777 4.223 11 4.5 11 L 7.7617188 11 L 6.7871094 10 L 4.5 10 z M 11.203125 15 L 10.257812 16 L 11 16 L 12.767578 16 L 11.820312 15 L 11.203125 15 z "
     />
  <path
     style="fill:#d65532"
     d="M 4.5 7 C 4.223 7 4 7.223 4 7.5 C 4 7.777 4.223 8 4.5 8 L 6.375 8 L 7.4296875 7 L 4.5 7 z M 10.291016 7 L 11.285156 8 L 11.722656 8 L 12.666016 7.0332031 C 12.613652 7.0146851 12.558863 7 12.5 7 L 10.291016 7 z M 4.5 13 C 4.223 13 4 13.223 4 13.5 C 4 13.777 4.223 14 4.5 14 L 6.0292969 14 C 6.0596771 13.797707 6.1341992 13.599999 6.2890625 13.443359 L 6.7285156 13 L 4.5 13 z "
     id="rect845" />
  <path
     style="fill:#e68497"
     d="M 16,14.149904 13.394098,11.498367 15.901588,8.7205944 14.094035,7.0000085 11.513481,9.6470643 8.880616,7.0000085 7,8.7838805 9.632863,11.487053 7,14.147058 8.880616,16 11.510426,13.22059 14.146345,16 Z"
     />
</svg>
